src/assets/svg/icons/fa/nuevos/classic/light/octagon-check classic light.svg

<svg xmlns="http://www.w3.org/2000/svg" viewBox="0 0 512 512"><path d="M191.5 32.07C180.9 32.07 170.7 36.28 163.2 43.78L43.78 163.2C36.28 170.7 32.07 180.9 32.07 191.5V320.5C32.07 331.1 36.28 341.3 43.78 348.8L21.15 371.4C7.652 357.9 .0666 339.6 .0666 320.5V191.5C.0666 172.4 7.652 154.1 21.15 140.6L140.6 21.15C154.1 7.652 172.4 .0664 191.5 .0664H320.5C339.6 .0664 357.9 7.652 371.4 21.15L490.8 140.6C504.3 154.1 511.9 172.4 511.9 191.5V320.5C511.9 339.6 504.3 357.9 490.8 371.4L371.4 490.8C357.9 504.3 339.6 511.9 320.5 511.9H191.5C172.4 511.9 154.1 504.3 140.6 490.8L21.15 371.4L43.78 348.8L163.2 468.2C170.7 475.7 180.9 479.9 191.5 479.9H320.5C331.1 479.9 341.3 475.7 348.8 468.2L468.2 348.8C475.7 341.3 479.9 331.1 479.9 320.5V191.5C479.9 180.9 475.7 170.7 468.2 163.2L348.8 43.78C341.3 36.28 331.1 32.07 320.5 32.07H191.5zM235.3 331.3C229.1 337.6 218.9 337.6 212.7 331.3L148.7 267.3C142.4 261.1 142.4 250.9 148.7 244.7C154.9 238.4 165.1 238.4 171.3 244.7L224 297.4L340.7 180.7C346.9 174.4 357.1 174.4 363.3 180.7C369.6 186.9 369.6 197.1 363.3 203.3L235.3 331.3z"/></svg>

<svg xmlns="http://www.w3.org/2000/svg" viewBox="0 0 512 512"><!--! Font Awesome Pro 6.4.0 by @fontawesome - https://fontawesome.com License - https://fontawesome.com/license (Commercial License) Copyright 2023 Fonticons, Inc. --><path d="M191.5 32.1c-10.6 0-20.8 4.2-28.3 11.7L43.8 163.2c-7.5 7.5-11.7 17.7-11.7 28.3v129c0 10.6 4.2 20.8 11.7 28.3L21.2 371.4C7.7 357.9 .1 339.6 .1 320.5v-129c0-19.1 7.6-37.4 21.1-50.9L140.6 21.2C154.1 7.7 172.4 .1 191.5 .1h129c19.1 0 37.4 7.6 50.9 21.1L490.8 140.6c13.5 13.5 21.1 31.8 21.1 50.9v129c0 19.1-7.6 37.4-21.1 50.9L371.4 490.8c-13.5 13.5-31.8 21.1-50.9 21.1h-129c-19.1 0-37.4-7.6-50.9-21.1L21.2 371.4l22.6-22.6L163.2 468.2c7.5 7.5 17.7 11.7 28.3 11.7h129c10.6 0 20.8-4.2 28.3-11.7L468.2 348.8c7.5-7.5 11.7-17.7 11.7-28.3v-129c0-10.6-4.2-20.8-11.7-28.3L348.8 43.8c-7.5-7.5-17.7-11.7-28.3-11.7h-129zM363.3 203.3l-128 128c-6.2 6.2-16.4 6.2-22.6 0l-64-64c-6.2-6.2-6.2-16.4 0-22.6s16.4-6.2 22.6 0L224 297.4 340.7 180.7c6.2-6.2 16.4-6.2 22.6 0s6.2 16.4 0 22.6z"/></svg>
